assets/img/decor-dots.svg

<svg width="468" height="16" viewBox="0 0 468 16" fill="none" xmlns="http://www.w3.org/2000/svg">
<mask id="mask0_182_88" style="mask-type:luminance" maskUnits="userSpaceOnUse" x="0" y="0" width="18" height="16">
<path d="M0 0.135254H17.3333V15.9998H0V0.135254Z" fill="white"/>
</mask>
<g mask="url(#mask0_182_88)">
<path d="M9.8644 0.135254C13.0727 0.380046 15.7654 2.11963 16.7602 4.7238C17.8384 7.51025 17.1717 10.3436 14.5415 12.5259C13.0519 13.7446 11.3956 14.6665 9.57794 15.2863C9.0519 15.4894 8.50502 15.604 7.94252 15.6248C7.37481 15.6457 6.82273 15.5728 6.28627 15.4061C5.7446 15.2446 5.2446 14.9946 4.78627 14.6613C4.32794 14.3332 3.9321 13.9321 3.60398 13.4686C2.52585 12.0623 1.2394 10.5884 0.838355 8.94255C-0.0262282 5.4165 2.1769 2.24984 6.01023 0.942546C7.2446 0.499838 8.57794 0.395671 9.8644 0.135254Z" fill="black"/>
</g>
<mask id="mask1_182_88" style="mask-type:luminance" maskUnits="userSpaceOnUse" x="322" y="0" width="17" height="16">
<path d="M322.667 0.135254H338.667V15.9998H322.667V0.135254Z" fill="white"/>
</mask>
<g mask="url(#mask1_182_88)">
<path d="M329.969 0.947961C333.85 0.927126 336.459 2.47921 337.48 5.19796C338.495 7.91671 337.678 10.9792 335.386 13.1303C334.886 13.6198 334.324 14.0053 333.688 14.2917C333.053 14.573 332.386 14.7396 331.693 14.7865C331.001 14.8334 330.318 14.7553 329.652 14.5573C328.985 14.3594 328.376 14.0521 327.818 13.6355C327.386 13.3125 326.943 13.0157 326.475 12.7448C323.829 11.2865 322.626 9.17713 322.985 6.56254C323.391 3.65109 325.282 1.69796 328.245 1.10421C328.818 1.02088 329.391 0.968793 329.969 0.947961Z" fill="black"/>
</g>
<mask id="mask2_182_88" style="mask-type:luminance" maskUnits="userSpaceOnUse" x="421" y="0" width="17" height="16">
<path d="M421.333 0.135254H437.333V15.9998H421.333V0.135254Z" fill="white"/>
</mask>
<g mask="url(#mask2_182_88)">
<path d="M429.119 0.69249C433.197 0.671656 436.442 3.70291 436.442 7.52582C436.442 11.1925 432.604 15.0571 428.838 15.0571C424.578 15.0571 422.406 11.8383 422.182 7.42166C421.994 3.58832 425.135 0.713323 429.119 0.69249Z" fill="black"/>
</g>
<mask id="mask3_182_88" style="mask-type:luminance" maskUnits="userSpaceOnUse" x="390" y="0" width="17" height="16">
<path d="M390.667 0.135254H406.667V15.9998H390.667V0.135254Z" fill="white"/>
</mask>
<g mask="url(#mask3_182_88)">
<path d="M398.86 0.96875C402.901 0.96875 405.907 3.8125 405.891 7.63542C405.891 11.375 402.125 14.7708 398 14.7813C394.256 14.7813 391.631 11.7917 391.636 7.51042C391.641 3.81771 394.792 0.973959 398.86 0.96875Z" fill="black"/>
</g>
<mask id="mask4_182_88" style="mask-type:luminance" maskUnits="userSpaceOnUse" x="34" y="0" width="16" height="16">
<path d="M34.667 0.135254H49.3337V15.9998H34.667V0.135254Z" fill="white"/>
</mask>
<g mask="url(#mask4_182_88)">
<path d="M34.9897 7.70824C34.948 3.92699 38.1355 0.833242 42.1042 0.864493C46.0678 0.890534 48.9897 3.68741 49.0001 7.40616C49.0001 11.8332 46.2553 14.8645 42.1876 14.8905C38.573 14.927 35.0313 11.3853 34.9897 7.70824Z" fill="black"/>
</g>
<mask id="mask5_182_88" style="mask-type:luminance" maskUnits="userSpaceOnUse" x="294" y="0" width="17" height="15">
<path d="M294.667 0.135254H310.667V14.6665H294.667V0.135254Z" fill="white"/>
</mask>
<g mask="url(#mask5_182_88)">
<path d="M302.75 1.22901C303.188 1.2186 303.62 1.24985 304.047 1.31756C304.48 1.39047 304.902 1.49985 305.308 1.65089C305.719 1.79672 306.115 1.98422 306.49 2.20818C306.865 2.43214 307.219 2.68735 307.547 2.97381C307.875 3.26547 308.172 3.57797 308.443 3.92693C308.714 4.27068 308.954 4.63526 309.157 5.02589C309.36 5.41651 309.527 5.81756 309.657 6.23943C309.782 6.66131 309.875 7.08839 309.922 7.52589C310.256 10.5832 307.875 13.453 304.339 14.2655C299.959 15.2655 296.266 13.4061 295.402 9.77068C294.422 5.72901 298.277 1.24985 302.75 1.22901Z" fill="black"/>
</g>
<mask id="mask6_182_88" style="mask-type:luminance" maskUnits="userSpaceOnUse" x="68" y="0" width="15" height="16">
<path d="M68 0.135254H82.6667V15.9998H68V0.135254Z" fill="white"/>
</mask>
<g mask="url(#mask6_182_88)">
<path d="M68.4688 7.97372C68.4532 4.13517 71.698 0.895591 75.6251 0.864342C79.3178 0.817466 82.3282 3.65601 82.3594 7.2133C82.3855 11.031 78.9063 14.8904 75.4063 14.9164C71.7553 14.9321 68.4896 11.6716 68.4688 7.97372Z" fill="black"/>
</g>
<mask id="mask7_182_88" style="mask-type:luminance" maskUnits="userSpaceOnUse" x="225" y="0" width="15" height="15">
<path d="M225.333 0.135254H240V14.6665H225.333V0.135254Z" fill="white"/>
</mask>
<g mask="url(#mask7_182_88)">
<path d="M232.578 14.4583C228.037 14.3489 225.427 11.9583 225.552 8.0364C225.677 4.10931 229 1.17181 233.193 1.29681C237.214 1.41661 240.005 4.13015 239.88 7.79681C239.766 11.177 236.078 14.5416 232.578 14.4583Z" fill="black"/>
</g>
<path d="M135.614 1.38037C138.885 1.38037 141.177 2.29183 142.359 4.89079C143.479 7.3387 143.13 9.7085 141.375 11.8231C139.531 14.0366 137.265 14.9689 134.526 13.9793C133.041 13.4481 131.349 12.9272 130.307 11.8543C127.172 8.63558 128.64 3.5262 133.005 1.95329C133.859 1.68766 134.729 1.49496 135.614 1.38037Z" fill="black"/>
<mask id="mask8_182_88" style="mask-type:luminance" maskUnits="userSpaceOnUse" x="358" y="0" width="16" height="16">
<path d="M358.667 0.135254H373.334V15.9998H358.667V0.135254Z" fill="white"/>
</mask>
<g mask="url(#mask8_182_88)">
<path d="M366.464 0.984375C370.162 0.984375 373.063 3.6875 373.11 7.16667C373.151 10.8854 369.323 14.7448 365.578 14.7552C361.974 14.7552 359.849 12.2083 359.813 7.75521C359.776 3.89063 362.615 0.994792 366.464 0.984375Z" fill="black"/>
</g>
<mask id="mask9_182_88" style="mask-type:luminance" maskUnits="userSpaceOnUse" x="452" y="1" width="16" height="14">
<path d="M452 1.3335H467.958V14.6668H452V1.3335Z" fill="white"/>
</mask>
<g mask="url(#mask9_182_88)">
<path d="M459.328 1.49503C464.453 1.55232 467.948 5.8544 466.323 10.219C465.047 13.6357 462.5 14.5523 458.156 14.1773C454.448 13.8596 452.287 11.3023 452.49 8.00023C452.698 4.69294 456.089 1.45336 459.328 1.49503Z" fill="black"/>
</g>
<mask id="mask10_182_88" style="mask-type:luminance" maskUnits="userSpaceOnUse" x="197" y="0" width="15" height="16">
<path d="M197.333 0.135254H212V15.9998H197.333V0.135254Z" fill="white"/>
</mask>
<g mask="url(#mask10_182_88)">
<path d="M204.619 1.03088C208.359 1.03088 211.26 3.86421 211.234 7.45796C211.208 10.9215 207.395 14.7288 203.968 14.7288C200.536 14.7288 197.703 11.458 197.75 7.43192C197.791 3.77046 200.76 1.01004 204.619 1.03088Z" fill="black"/>
</g>
<mask id="mask11_182_88" style="mask-type:luminance" maskUnits="userSpaceOnUse" x="98" y="0" width="16" height="15">
<path d="M98.667 0.135254H113.334V14.6665H98.667V0.135254Z" fill="white"/>
</mask>
<g mask="url(#mask11_182_88)">
<path d="M106.548 1.19245C110.24 1.19245 113.397 3.96328 113.173 7.36953C112.938 11.0102 110.912 14.6456 105.584 14.5727C102.1 14.531 99.7977 11.8904 99.8185 7.91641C99.8289 4.00495 102.662 1.17682 106.548 1.19245Z" fill="black"/>
</g>
<mask id="mask12_182_88" style="mask-type:luminance" maskUnits="userSpaceOnUse" x="260" y="0" width="15" height="16">
<path d="M260 0.135254H274.667V15.9998H260V0.135254Z" fill="white"/>
</mask>
<g mask="url(#mask12_182_88)">
<path d="M267.063 1.08301C270.651 1.08301 273.62 3.94759 273.589 7.39551C273.557 11.2497 270.438 14.6715 266.979 14.6715C263.625 14.6715 260.49 11.1455 260.568 7.4528C260.573 7.03092 260.625 6.60905 260.714 6.19759C260.807 5.78092 260.932 5.37988 261.099 4.99447C261.271 4.60384 261.474 4.23926 261.714 3.8903C261.948 3.54134 262.219 3.21842 262.521 2.92155C262.823 2.62988 263.151 2.36426 263.5 2.13509C263.854 1.90593 264.224 1.70801 264.615 1.55176C265.005 1.39551 265.406 1.27572 265.818 1.19759C266.229 1.11947 266.646 1.08301 267.063 1.08301Z" fill="black"/>
</g>
<path d="M169.984 1.58852C173.859 1.63018 176.687 4.32289 176.656 7.93747C176.625 11.2656 173.672 14.2291 170.427 14.1718C166.276 14.0937 163.172 11.2656 163.239 7.62497C163.302 4.13539 166.192 1.54164 169.984 1.58852Z" fill="black"/>
</svg>

<svg width="468" height="16" fill="none" xmlns="http://www.w3.org/2000/svg"><mask id="a" style="mask-type:luminance" maskUnits="userSpaceOnUse" x="0" y="0" width="18" height="16"><path d="M0 .135h17.333V16H0V.135z" fill="#fff"/></mask><g mask="url(#a)"><path d="M9.864.135c3.209.245 5.901 1.985 6.896 4.589 1.078 2.786.412 5.62-2.219 7.802a15.874 15.874 0 01-4.963 2.76 5.036 5.036 0 01-1.635.339 4.93 4.93 0 01-1.657-.219 4.932 4.932 0 01-1.5-.745 5.041 5.041 0 01-1.182-1.192c-1.078-1.407-2.365-2.88-2.766-4.526-.864-3.526 1.339-6.693 5.172-8C7.245.5 8.578.396 9.864.135z" fill="#000"/></g><mask id="b" style="mask-type:luminance" maskUnits="userSpaceOnUse" x="322" y="0" width="17" height="16"><path d="M322.667.135h16V16h-16V.135z" fill="#fff"/></mask><g mask="url(#b)"><path d="M329.969.948c3.881-.02 6.49 1.531 7.511 4.25 1.015 2.719.198 5.781-2.094 7.932-.5.49-1.062.875-1.698 1.162a5.877 5.877 0 01-1.995.495 5.756 5.756 0 01-2.041-.23 5.793 5.793 0 01-1.834-.921c-.432-.323-.875-.62-1.343-.891-2.646-1.458-3.849-3.568-3.49-6.182.406-2.912 2.297-4.865 5.26-5.459a15.944 15.944 0 011.724-.156z" fill="#000"/></g><mask id="c" style="mask-type:luminance" maskUnits="userSpaceOnUse" x="421" y="0" width="17" height="16"><path d="M421.333.135h16V16h-16V.135z" fill="#fff"/></mask><g mask="url(#c)"><path d="M429.119.692c4.078-.02 7.323 3.01 7.323 6.834 0 3.667-3.838 7.531-7.604 7.531-4.26 0-6.432-3.219-6.656-7.635-.188-3.834 2.953-6.709 6.937-6.73z" fill="#000"/></g><mask id="d" style="mask-type:luminance" maskUnits="userSpaceOnUse" x="390" y="0" width="17" height="16"><path d="M390.667.135h16V16h-16V.135z" fill="#fff"/></mask><g mask="url(#d)"><path d="M398.86.969c4.041 0 7.047 2.844 7.031 6.666 0 3.74-3.766 7.136-7.891 7.146-3.744 0-6.369-2.99-6.364-7.27.005-3.693 3.156-6.537 7.224-6.542z" fill="#000"/></g><mask id="e" style="mask-type:luminance" maskUnits="userSpaceOnUse" x="34" y="0" width="16" height="16"><path d="M34.667.135h14.667V16H34.667V.135z" fill="#fff"/></mask><g mask="url(#e)"><path d="M34.99 7.708C34.948 3.927 38.135.833 42.104.864 46.068.891 48.99 3.687 49 7.406c0 4.427-2.745 7.458-6.812 7.484-3.615.037-7.157-3.505-7.198-7.182z" fill="#000"/></g><mask id="f" style="mask-type:luminance" maskUnits="userSpaceOnUse" x="294" y="0" width="17" height="15"><path d="M294.667.135h16v14.531h-16V.136z" fill="#fff"/></mask><g mask="url(#f)"><path d="M302.75 1.229a6.894 6.894 0 012.558.422c.411.146.807.333 1.182.557.375.224.729.48 1.057.766.328.291.625.604.896.953.271.344.511.708.714 1.099.203.39.37.792.5 1.213.125.422.218.85.265 1.287.334 3.057-2.047 5.927-5.583 6.74-4.38 1-8.073-.86-8.937-4.495-.98-4.042 2.875-8.521 7.348-8.542z" fill="#000"/></g><mask id="g" style="mask-type:luminance" maskUnits="userSpaceOnUse" x="68" y="0" width="15" height="16"><path d="M68 .135h14.667V16H68V.135z" fill="#fff"/></mask><g mask="url(#g)"><path d="M68.469 7.974c-.016-3.839 3.229-7.078 7.156-7.11 3.693-.047 6.703 2.792 6.734 6.35.026 3.817-3.453 7.676-6.953 7.702-3.65.016-6.916-3.244-6.937-6.942z" fill="#000"/></g><mask id="h" style="mask-type:luminance" maskUnits="userSpaceOnUse" x="225" y="0" width="15" height="15"><path d="M225.333.135H240v14.531h-14.667V.136z" fill="#fff"/></mask><g mask="url(#h)"><path d="M232.578 14.458c-4.541-.11-7.151-2.5-7.026-6.422.125-3.927 3.448-6.864 7.641-6.74 4.021.12 6.812 2.834 6.687 6.5-.114 3.381-3.802 6.746-7.302 6.662z" fill="#000"/></g><path d="M135.614 1.38c3.271 0 5.563.912 6.745 3.51 1.12 2.449.771 4.819-.984 6.933-1.844 2.214-4.11 3.146-6.849 2.156-1.485-.53-3.177-1.052-4.219-2.125-3.135-3.218-1.667-8.328 2.698-9.9a15.455 15.455 0 012.609-.574z" fill="#000"/><mask id="i" style="mask-type:luminance" maskUnits="userSpaceOnUse" x="358" y="0" width="16" height="16"><path d="M358.667.135h14.667V16h-14.667V.135z" fill="#fff"/></mask><g mask="url(#i)"><path d="M366.464.984c3.698 0 6.599 2.704 6.646 6.183.041 3.718-3.787 7.578-7.532 7.588-3.604 0-5.729-2.547-5.765-7-.037-3.864 2.802-6.76 6.651-6.77z" fill="#000"/></g><mask id="j" style="mask-type:luminance" maskUnits="userSpaceOnUse" x="452" y="1" width="16" height="14"><path d="M452 1.333h15.958v13.334H452V1.334z" fill="#fff"/></mask><g mask="url(#j)"><path d="M459.328 1.495c5.125.057 8.62 4.36 6.995 8.724-1.276 3.417-3.823 4.333-8.167 3.958-3.708-.317-5.869-2.875-5.666-6.177.208-3.307 3.599-6.547 6.838-6.505z" fill="#000"/></g><mask id="k" style="mask-type:luminance" maskUnits="userSpaceOnUse" x="197" y="0" width="15" height="16"><path d="M197.333.135H212V16h-14.667V.135z" fill="#fff"/></mask><g mask="url(#k)"><path d="M204.619 1.03c3.74 0 6.641 2.834 6.615 6.428-.026 3.463-3.839 7.27-7.266 7.27-3.432 0-6.265-3.27-6.218-7.296.041-3.662 3.01-6.422 6.869-6.401z" fill="#000"/></g><mask id="l" style="mask-type:luminance" maskUnits="userSpaceOnUse" x="98" y="0" width="16" height="15"><path d="M98.667.135h14.667v14.531H98.667V.136z" fill="#fff"/></mask><g mask="url(#l)"><path d="M106.548 1.192c3.692 0 6.849 2.771 6.625 6.178-.235 3.64-2.261 7.276-7.589 7.203-3.484-.042-5.786-2.683-5.766-6.657.01-3.911 2.844-6.74 6.73-6.724z" fill="#000"/></g><mask id="m" style="mask-type:luminance" maskUnits="userSpaceOnUse" x="260" y="0" width="15" height="16"><path d="M260 .135h14.667V16H260V.135z" fill="#fff"/></mask><g mask="url(#m)"><path d="M267.063 1.083c3.588 0 6.557 2.865 6.526 6.313-.032 3.854-3.151 7.276-6.61 7.276-3.354 0-6.489-3.527-6.411-7.22.005-.421.057-.843.146-1.254.093-.417.218-.818.385-1.204.172-.39.375-.755.615-1.104a6.16 6.16 0 01.807-.968 6.472 6.472 0 013.297-1.724 6.666 6.666 0 011.245-.115z" fill="#000"/></g><path d="M169.984 1.589c3.875.041 6.703 2.734 6.672 6.348-.031 3.329-2.984 6.292-6.229 6.235-4.151-.078-7.255-2.906-7.188-6.547.063-3.49 2.953-6.083 6.745-6.036z" fill="#000"/></svg>
